static/img/cover-svp-sdk.svg

<svg width="40" height="40" viewBox="0 0 40 40" fill="none" xmlns="http://www.w3.org/2000/svg">
<g clip-path="url(#clip0_2929_6)">
<path d="M36 0H4C1.79086 0 0 1.79086 0 4V36C0 38.2091 1.79086 40 4 40H36C38.2091 40 40 38.2091 40 36V4C40 1.79086 38.2091 0 36 0Z" fill="#7A438E"/>
<path d="M36 0H4C1.79086 0 0 1.79086 0 4V36C0 38.2091 1.79086 40 4 40H36C38.2091 40 40 38.2091 40 36V4C40 1.79086 38.2091 0 36 0Z" fill="#34A853"/>
<path d="M32.9302 26.5298C32.922 26.4805 32.9141 26.4316 32.9056 26.3827C32.6894 25.123 32.2677 23.9043 31.6562 22.772C31.0577 21.6626 30.2852 20.6491 29.3662 19.7675C28.6952 19.1229 27.9511 18.5534 27.1481 18.0695C27.1529 18.0619 27.157 18.0537 27.1618 18.0459C27.414 17.6252 27.6669 17.205 27.9191 16.7841L28.659 15.5518C28.8365 15.2569 29.0137 14.9614 29.19 14.6666C29.2793 14.5179 29.3316 14.3512 29.3429 14.1796C29.3541 14.008 29.3239 13.8363 29.2547 13.678C29.1599 13.4595 28.9948 13.2764 28.7837 13.1559C28.6346 13.0705 28.4677 13.0187 28.295 13.0041C28.2229 12.9981 28.1504 12.9987 28.0784 13.0058C27.898 13.0235 27.7247 13.0823 27.5724 13.1774C27.4202 13.2724 27.2934 13.401 27.2027 13.5525C27.0255 13.8474 26.8484 14.1429 26.6716 14.4377L25.9317 15.6702C25.6795 16.0909 25.4266 16.5112 25.1744 16.9319C25.1469 16.9779 25.1191 17.0237 25.0916 17.0702C25.0534 17.0555 25.0154 17.0408 24.9771 17.0267C23.5865 16.5146 22.0779 16.2345 20.5009 16.2345C20.4578 16.2345 20.4152 16.2345 20.3716 16.2351C18.9696 16.2486 17.6225 16.4841 16.3656 16.9066C16.2207 16.9554 16.0768 17.007 15.934 17.0614C15.9084 17.0185 15.882 16.9755 15.8569 16.9325C15.6046 16.5117 15.3516 16.0915 15.0995 15.6707L14.3597 14.4381C14.1821 14.1434 14.005 13.8479 13.8285 13.553C13.7194 13.3707 13.5586 13.2223 13.3652 13.1252C13.1717 13.028 12.9535 12.9861 12.7363 13.0045C12.5634 13.0187 12.3961 13.0707 12.2471 13.1566C12.0834 13.2503 11.9466 13.382 11.8489 13.5397C11.8215 13.5844 11.797 13.6309 11.7765 13.6786C11.6695 13.9236 11.6569 14.1975 11.7408 14.4508C11.7661 14.5249 11.7988 14.5973 11.8407 14.6673C12.0182 14.9621 12.1952 15.2572 12.3719 15.5524C12.6189 15.9634 12.8654 16.3741 13.1121 16.7849C13.3643 17.2057 13.6168 17.6259 13.8689 18.0467C13.8709 18.0503 13.8734 18.0537 13.8753 18.0573C13.3679 18.3617 12.8835 18.7005 12.4258 19.0713C11.6071 19.7348 10.8786 20.4958 10.2578 21.336C9.9194 21.794 9.61462 22.2742 9.3457 22.7733C8.88139 23.6332 8.52587 24.5439 8.28682 25.4859C8.2118 25.7828 8.14824 26.0824 8.09629 26.384C8.08779 26.4328 8.07998 26.4823 8.07217 26.5311C8.04395 26.7077 8.01988 26.8848 8 27.0625H33C32.98 26.8841 32.9562 26.7069 32.9284 26.531L32.9302 26.5298Z" fill="white"/>
<path d="M27.096 24.7064C27.6042 24.3995 27.6781 23.6893 27.2608 23.1204C26.8438 22.5513 26.0937 22.3389 25.5857 22.6457C25.0775 22.9527 25.0034 23.6629 25.4208 24.2319C25.8378 24.801 26.5881 25.0134 27.096 24.7064ZM15.5793 24.2339C15.9966 23.6649 15.9226 22.9548 15.4144 22.6478C14.9061 22.3409 14.1562 22.5533 13.739 23.1222C13.3219 23.6914 13.3958 24.4014 13.9038 24.7084C14.412 25.0153 15.1622 24.8029 15.5793 24.2339Z" fill="#34A853"/>
</g>
<defs>
<clipPath id="clip0_2929_6">
<rect width="40" height="40" fill="white"/>
</clipPath>
</defs>
</svg>

<svg xmlns="http://www.w3.org/2000/svg" width="40" height="40" fill="none" viewBox="0 0 40 40"><g clip-path="url(#a)"><path fill="#7a438e" d="M36 0H4a4 4 0 0 0-4 4v32a4 4 0 0 0 4 4h32a4 4 0 0 0 4-4V4a4 4 0 0 0-4-4"/><path fill="#34a853" d="M36 0H4a4 4 0 0 0-4 4v32a4 4 0 0 0 4 4h32a4 4 0 0 0 4-4V4a4 4 0 0 0-4-4"/><path fill="#fff" d="m32.93 26.53-.024-.147a11.8 11.8 0 0 0-1.25-3.611 12.2 12.2 0 0 0-2.29-3.004 12.6 12.6 0 0 0-2.218-1.698l.014-.024.757-1.262.74-1.232.531-.885a1.084 1.084 0 0 0-.406-1.511 1.18 1.18 0 0 0-1.212.021 1.1 1.1 0 0 0-.37.376l-.53.885-.74 1.232-.758 1.262-.082.138q-.058-.023-.115-.043a12.9 12.9 0 0 0-4.476-.793l-.13.001a13 13 0 0 0-4.437.826l-.077-.128-.757-1.262-.74-1.233-.531-.885c-.11-.182-.27-.33-.464-.428a1.18 1.18 0 0 0-1.118.032 1.13 1.13 0 0 0-.47.522 1.08 1.08 0 0 0 .064.988l.53.885.741 1.233.757 1.262.006.01q-.762.458-1.45 1.014a12.4 12.4 0 0 0-2.167 2.265 12 12 0 0 0-1.971 4.15q-.113.445-.19.898-.014.074-.025.147-.042.265-.072.532h25a12 12 0 0 0-.072-.532z"/><path fill="#34a853" d="M27.096 24.706c.508-.306.582-1.017.165-1.586s-1.167-.781-1.675-.474-.583 1.017-.165 1.586 1.167.781 1.675.474m-11.517-.472c.418-.57.344-1.28-.165-1.586-.508-.307-1.258-.095-1.675.474-.417.57-.343 1.28.165 1.586s1.258.095 1.675-.474"/></g><defs><clipPath id="a"><path fill="#fff" d="M0 0h40v40H0z"/></clipPath></defs></svg>
